X: 1746
T: THE FLOWERS OF EDINBURGH
M:2/4
L:1/16
B:O'NEILL'S 1746
Z:Transcribed by A. LEE WORMAN
K:G
(GE)|D2(DE) G2G2|BGBd cBAG|FGEF DEFG|AFcF E2(GE)|
D2(DE) G2G2|BGBd efge|dcBA GFGA|B2G2 G2:|
|:(3d-e-f|g2(gf) gbag|f2(fe) fagf)|edef gfed|B2e2 e2(ge)|
dBGB d2(Bd)|(3e-f-g (fa) g2(ge)|dcBA GFGA|B2G2 G2:|


